svg/editor/translate_line.svg

<?xml version="1.0" encoding="UTF-8"?>
<svg width="24px" height="24px" viewBox="0 0 24 24" version="1.1" xmlns="http://www.w3.org/2000/svg" xmlns:xlink="http://www.w3.org/1999/xlink">
    <title>translate_line</title>
    <g id="页面-1" stroke="none" stroke-width="1" fill="none" fill-rule="evenodd">
        <g id="Editor" transform="translate(-192.000000, -96.000000)" fill-rule="nonzero">
            <g id="translate_line" transform="translate(192.000000, 96.000000)">
                 <path d="M24,0 L24,24 L0,24 L0,0 L24,0 Z M12.5934901,23.257841 L12.5819402,23.2595131 L12.5108777,23.2950439 L12.4918791,23.2987469 L12.4918791,23.2987469 L12.4767152,23.2950439 L12.4056548,23.2595131 C12.3958229,23.2563662 12.3870493,23.2590235 12.3821421,23.2649074 L12.3780323,23.275831 L12.360941,23.7031097 L12.3658947,23.7234994 L12.3769048,23.7357139 L12.4804777,23.8096931 L12.4953491,23.8136134 L12.4953491,23.8136134 L12.5071152,23.8096931 L12.6106902,23.7357139 L12.6232938,23.7196733 L12.6232938,23.7196733 L12.6266527,23.7031097 L12.609561,23.275831 C12.6075724,23.2657013 12.6010112,23.2592993 12.5934901,23.257841 L12.5934901,23.257841 Z M12.8583906,23.1452862 L12.8445485,23.1473072 L12.6598443,23.2396597 L12.6498822,23.2499052 L12.6498822,23.2499052 L12.6471943,23.2611114 L12.6650943,23.6906389 L12.6699349,23.7034178 L12.6699349,23.7034178 L12.678386,23.7104931 L12.8793402,23.8032389 C12.8914285,23.8068999 12.9022333,23.8029875 12.9078286,23.7952264 L12.9118235,23.7811639 L12.8776777,23.1665331 C12.8752882,23.1545897 12.8674102,23.1470016 12.8583906,23.1452862 L12.8583906,23.1452862 Z M12.1430473,23.1473072 C12.1332178,23.1423925 12.1221763,23.1452606 12.1156365,23.1525954 L12.1099173,23.1665331 L12.0757714,23.7811639 C12.0751323,23.7926639 12.0828099,23.8018602 12.0926481,23.8045676 L12.108256,23.8032389 L12.3092106,23.7104931 L12.3186497,23.7024347 L12.3186497,23.7024347 L12.3225043,23.6906389 L12.340401,23.2611114 L12.337245,23.2485176 L12.337245,23.2485176 L12.3277531,23.2396597 L12.1430473,23.1473072 Z" id="MingCute" fill-rule="nonzero"></path>
                <path d="M17,11 C17.5523,11 18,11.4477 18,12 L18,13 L19.5,13 C20.3284,13 21,13.6716 21,14.5 L21,17.5 C21,18.3284 20.3284,19 19.5,19 L18,19 L18,20 C18,20.5523 17.5523,21 17,21 C16.4477,21 16,20.5523 16,20 L16,19 L14.5,19 C13.6716,19 13,18.3284 13,17.5 L13,14.5 C13,13.6716 13.6716,13 14.5,13 L16,13 L16,12 C16,11.4477 16.4477,11 17,11 Z M5,15 C5.55228,15 6,15.4477 6,16 L6,17 C6,17.5523 6.44772,18 7,18 L10,18 C10.5523,18 11,18.4477 11,19 C11,19.5523 10.5523,20 10,20 L7,20 C5.34315,20 4,18.6569 4,17 L4,16 C4,15.4477 4.44772,15 5,15 Z M19,15 L18,15 L18,17 L19,17 L19,15 Z M16,15 L15,15 L15,17 L16,17 L16,15 Z M9.5,3 C10.0523,3 10.5,3.44772 10.5,4 C10.5,4.55228 10.0523,5 9.5,5 L9.5,5 L5,5 L5,7 L9,7 C9.55228,7 10,7.44772 10,8 C10,8.55228 9.55228,9 9,9 L9,9 L5,9 L5,11 L10,11 C10.5523,11 11,11.4477 11,12 C11,12.5523 10.5523,13 10,13 L10,13 L4.1,13 C3.49249,13 3,12.5075 3,11.9 L3,11.9 L3,4.1 C3,3.49249 3.49249,3 4.1,3 L4.1,3 Z M17,4 C18.6569,4 20,5.34315 20,7 L20,7 L20,9 C20,9.55228 19.5523,10 19,10 C18.4477,10 18,9.55228 18,9 L18,9 L18,7 C18,6.44772 17.5523,6 17,6 L17,6 L14,6 C13.4477,6 13,5.55228 13,5 C13,4.44772 13.4477,4 14,4 L14,4 Z" id="形状结合" fill="#09244B"></path>
            </g>
        </g>
    </g>
</svg>

<svg xmlns="http://www.w3.org/2000/svg" width="24" height="24"><g fill="none" fill-rule="nonzero"><path d="M24 0v24H0V0h24ZM12.593 23.258l-.011.002-.071.035-.02.004-.014-.004-.071-.035c-.01-.004-.019-.001-.024.005l-.004.01-.017.428.005.02.01.013.104.074.015.004.012-.004.104-.074.012-.016.004-.017-.017-.427c-.002-.01-.009-.017-.017-.018Zm.265-.113-.013.002-.185.093-.01.01-.003.011.018.43.005.012.008.007.201.093c.012.004.023 0 .029-.008l.004-.014-.034-.614c-.003-.012-.01-.02-.02-.022Zm-.715.002a.023.023 0 0 0-.027.006l-.006.014-.034.614c0 .012.007.02.017.024l.015-.002.201-.093.01-.008.004-.011.017-.43-.003-.012-.01-.01-.184-.092Z"/><path fill="#09244B" d="M17 11a1 1 0 0 1 1 1v1h1.5a1.5 1.5 0 0 1 1.5 1.5v3a1.5 1.5 0 0 1-1.5 1.5H18v1a1 1 0 1 1-2 0v-1h-1.5a1.5 1.5 0 0 1-1.5-1.5v-3a1.5 1.5 0 0 1 1.5-1.5H16v-1a1 1 0 0 1 1-1ZM5 15a1 1 0 0 1 1 1v1a1 1 0 0 0 1 1h3a1 1 0 1 1 0 2H7a3 3 0 0 1-3-3v-1a1 1 0 0 1 1-1Zm14 0h-1v2h1v-2Zm-3 0h-1v2h1v-2ZM9.5 3a1 1 0 1 1 0 2H5v2h4a1 1 0 0 1 0 2H5v2h5a1 1 0 1 1 0 2H4.1A1.1 1.1 0 0 1 3 11.9V4.1A1.1 1.1 0 0 1 4.1 3ZM17 4a3 3 0 0 1 3 3v2a1 1 0 1 1-2 0V7a1 1 0 0 0-1-1h-3a1 1 0 1 1 0-2Z"/></g></svg>
